X:121
T:Novelty, The
M:6/8
L:1/8
B:Thompson's Compleat Collection of 200 Favourite Country Dances, vol. 1 (London, 1757)
Z:Transcribed and edited by Flynn Titford-Mock, 2007
Z:abc's:AK/Fiddler's Companion
K:D
g|fdd def|gee efg|fdd def|ecA A2g|fdd def|gag fag|fdf ecA|d3 D2:|
|:g|fga aba|bgg gag|aff fgf|gee efg|fga aba|bgg gag|fdf ecA|dAF D2:|

